src/topics/icons/aws-cognito.svg

<svg height="299" preserveAspectRatio="xMidYMid" viewBox="0 0 256 299" width="256" xmlns="http://www.w3.org/2000/svg"><path d="m208.752 58.061 25.771-6.636.192.283.651 155.607-.843.846-5.31.227-20.159-3.138-.302-.794z" fill="#7a3e65"/><path d="m59.705 218.971.095.007 68.027 19.767.173.133.296.236-.096 59.232-.2.252-68.295-33.178z" fill="#7a3e65"/><path d="m208.752 204.456-80.64 19.312-40.488-9.773-27.919 4.976 68.295 19.907 105.405-28.537 1.118-2.18z" fill="#cfb2c1"/><path d="m196.295 79.626-.657-.749-66.904-19.44-.734.283-.672-.343-105.276 30.357-.575.703.845.463 24.075 3.53.851-.289 80.64-19.311 40.488 9.773z" fill="#512843"/><path d="m47.248 240.537-25.771 6.221-.045-.149-1.015-155.026 1.06-1.146 25.771 3.704z" fill="#c17b9e"/><path d="m82.04 180.403 45.96 5.391.345-.515.187-71.887-.532-.589-45.96 5.392z" fill="#7a3e65"/><path d="m173.96 180.403-45.96 5.391v-72.991l45.96 5.392z" fill="#c17b9e"/><path d="m196.295 79.626-68.295-19.906v-59.72l68.295 33.177z" fill="#c17b9e"/><path d="m128 0-128 61.793v175.011l21.477 9.954v-156.321l106.523-30.717z" fill="#7a3e65"/><path d="m234.523 51.425v156.736l-106.523 30.717v59.72l128-61.794v-175.011z" fill="#c17b9e"/></svg>

<?xml version="1.0" encoding="UTF-8" standalone="no"?>
<svg width="256px" height="299px" viewBox="0 0 256 299" version="1.1" xmlns="http://www.w3.org/2000/svg" xmlns:xlink="http://www.w3.org/1999/xlink" preserveAspectRatio="xMidYMid">
	<g>
		<path d="M208.752,58.061 L234.523,51.425 L234.715,51.708 L235.366,207.315 L234.523,208.161 L229.213,208.388 L209.054,205.25 L208.752,204.456 L208.752,58.061" fill="#7A3E65"></path>
		<path d="M59.705,218.971 L59.8,218.978 L127.827,238.745 L128,238.878 L128.296,239.114 L128.2,298.346 L128,298.598 L59.705,265.42 L59.705,218.971" fill="#7A3E65"></path>
		<path d="M208.752,204.456 L128.112,223.768 L87.624,213.995 L59.705,218.971 L128,238.878 L233.405,210.341 L234.523,208.161 L208.752,204.456" fill="#CFB2C1"></path>
		<path d="M196.295,79.626 L195.638,78.877 L128.734,59.437 L128,59.72 L127.328,59.377 L22.052,89.734 L21.477,90.437 L22.322,90.9 L46.397,94.43 L47.248,94.141 L127.888,74.83 L168.376,84.603 L196.295,79.626" fill="#512843"></path>
		<path d="M47.248,240.537 L21.477,246.758 L21.432,246.609 L20.417,91.583 L21.477,90.437 L47.248,94.141 L47.248,240.537" fill="#C17B9E"></path>
		<path d="M82.04,180.403 L128,185.794 L128.345,185.279 L128.532,113.392 L128,112.803 L82.04,118.195 L82.04,180.403" fill="#7A3E65"></path>
		<path d="M173.96,180.403 L128,185.794 L128,112.803 L173.96,118.195 L173.96,180.403" fill="#C17B9E"></path>
		<path d="M196.295,79.626 L128,59.72 L128,0 L196.295,33.177 L196.295,79.626" fill="#C17B9E"></path>
		<path d="M128,0 L0,61.793 L0,236.804 L21.477,246.758 L21.477,90.437 L128,59.72 L128,0" fill="#7A3E65"></path>
		<path d="M234.523,51.425 L234.523,208.161 L128,238.878 L128,298.598 L256,236.804 L256,61.793 L234.523,51.425" fill="#C17B9E"></path>
	</g>
</svg>
